X:81
T:Bunker Hill                                                                                       
M:4/4                                                                                               
L:1/8                                                                                               
K:DMix                                                                                              
cA|GE E2 D3 G|(3EFG AB c2 BG|ABAG EFGE|ABcA dBcA|                                                   
|GE E2 D3 G|(3EFG AB c2 BG|ABAG EFGE|ABcA d2:|                                                      
cA|GccB cdec|GccB cBAG|Add^c defd|Add^c dcAG|                                                       
(3EFG AB cAdB|cAdB c2 Bc|dBcA BG G2|ABcA d2 :|                                                      
ag|fd d2 fdad|fadf a3 f|ge e2 (3gfe be|gbeg b2 ag|                                                  
fadf ed^ce|dcAB c Bc|dBcA BG G2|ABcA d2 :|
